images/3234136.svg

<?xml version="1.0" encoding="UTF-8"?>
<svg xmlns="http://www.w3.org/2000/svg" xmlns:xlink="http://www.w3.org/1999/xlink" width="300pt" height="300pt" viewBox="0 0 300 300" version="1.1">
<defs>
<g>
<symbol overflow="visible" id="glyph0-0">
<path style="stroke:none;" d="M 0.453125 1.59375 L 0.453125 -6.34375 L 4.953125 -6.34375 L 4.953125 1.59375 Z M 0.953125 1.09375 L 4.453125 1.09375 L 4.453125 -5.84375 L 0.953125 -5.84375 Z M 0.953125 1.09375 "/>
</symbol>
<symbol overflow="visible" id="glyph0-1">
<path style="stroke:none;" d="M 3.546875 -5.953125 C 2.898438 -5.953125 2.382812 -5.710938 2 -5.234375 C 1.625 -4.753906 1.4375 -4.101562 1.4375 -3.28125 C 1.4375 -2.445312 1.625 -1.789062 2 -1.3125 C 2.382812 -0.832031 2.898438 -0.59375 3.546875 -0.59375 C 4.191406 -0.59375 4.703125 -0.832031 5.078125 -1.3125 C 5.453125 -1.789062 5.640625 -2.445312 5.640625 -3.28125 C 5.640625 -4.101562 5.453125 -4.753906 5.078125 -5.234375 C 4.703125 -5.710938 4.191406 -5.953125 3.546875 -5.953125 Z M 3.546875 -6.6875 C 4.460938 -6.6875 5.195312 -6.375 5.75 -5.75 C 6.300781 -5.132812 6.578125 -4.3125 6.578125 -3.28125 C 6.578125 -2.238281 6.300781 -1.410156 5.75 -0.796875 C 5.195312 -0.179688 4.460938 0.125 3.546875 0.125 C 2.617188 0.125 1.878906 -0.179688 1.328125 -0.796875 C 0.773438 -1.410156 0.5 -2.238281 0.5 -3.28125 C 0.5 -4.3125 0.773438 -5.132812 1.328125 -5.75 C 1.878906 -6.375 2.617188 -6.6875 3.546875 -6.6875 Z M 3.546875 -6.6875 "/>
</symbol>
<symbol overflow="visible" id="glyph0-2">
<path style="stroke:none;" d="M 0.890625 -6.5625 L 2.078125 -6.5625 L 4.984375 -1.078125 L 4.984375 -6.5625 L 5.84375 -6.5625 L 5.84375 0 L 4.65625 0 L 1.75 -5.484375 L 1.75 0 L 0.890625 0 Z M 0.890625 -6.5625 "/>
</symbol>
</g>
</defs>
<g id="surface46389">
<rect x="0" y="0" width="300" height="300" style="fill:rgb(100%,100%,100%);fill-opacity:1;stroke:none;"/>
<path style="fill:none;stroke-width:1.2;stroke-linecap:butt;stroke-linejoin:miter;stroke:rgb(0%,0%,0%);stroke-opacity:1;stroke-miterlimit:10;" d="M 168.6875 213.769531 L 172.984375 204.382812 "/>
<path style="fill:none;stroke-width:1.2;stroke-linecap:butt;stroke-linejoin:miter;stroke:rgb(100%,0%,0%);stroke-opacity:1;stroke-miterlimit:10;" d="M 172.984375 204.382812 L 177.285156 194.996094 "/>
<path style="fill:none;stroke-width:1.2;stroke-linecap:butt;stroke-linejoin:miter;stroke:rgb(100%,0%,0%);stroke-opacity:1;stroke-miterlimit:10;" d="M 177.285156 194.996094 L 171.304688 186.578125 "/>
<path style="fill:none;stroke-width:1.2;stroke-linecap:butt;stroke-linejoin:miter;stroke:rgb(0%,0%,0%);stroke-opacity:1;stroke-miterlimit:10;" d="M 171.304688 186.578125 L 165.324219 178.160156 "/>
<path style=" stroke:none;fill-rule:nonzero;fill:rgb(100%,100%,100%);fill-opacity:1;" d="M 173.285156 189.496094 L 181.285156 189.496094 L 181.285156 200.496094 L 173.285156 200.496094 Z M 173.285156 189.496094 "/>
<g style="fill:rgb(100%,0%,0%);fill-opacity:1;">
  <use xlink:href="#glyph0-1" x="173.285156" y="198.15918"/>
</g>
<path style="fill:none;stroke-width:1.2;stroke-linecap:butt;stroke-linejoin:miter;stroke:rgb(0%,0%,0%);stroke-opacity:1;stroke-miterlimit:10;" d="M 165.324219 178.160156 L 173.921875 159.386719 "/>
<path style="fill:none;stroke-width:1.2;stroke-linecap:butt;stroke-linejoin:miter;stroke:rgb(0%,0%,0%);stroke-opacity:1;stroke-miterlimit:10;" d="M 173.921875 159.386719 L 167.941406 150.972656 "/>
<path style="fill:none;stroke-width:1.2;stroke-linecap:butt;stroke-linejoin:miter;stroke:rgb(0%,0%,100%);stroke-opacity:1;stroke-miterlimit:10;" d="M 167.941406 150.972656 L 161.960938 142.554688 "/>
<path style="fill:none;stroke-width:1.2;stroke-linecap:butt;stroke-linejoin:miter;stroke:rgb(0%,0%,100%);stroke-opacity:1;stroke-miterlimit:10;" d="M 161.960938 142.554688 L 166.257812 133.167969 "/>
<path style="fill:none;stroke-width:1.2;stroke-linecap:butt;stroke-linejoin:miter;stroke:rgb(0%,0%,0%);stroke-opacity:1;stroke-miterlimit:10;" d="M 166.257812 133.167969 L 170.558594 123.78125 "/>
<path style="fill:none;stroke-width:1.2;stroke-linecap:butt;stroke-linejoin:miter;stroke:rgb(0%,0%,0%);stroke-opacity:1;stroke-miterlimit:10;" d="M 141.402344 144.496094 L 151.683594 143.527344 "/>
<path style="fill:none;stroke-width:1.2;stroke-linecap:butt;stroke-linejoin:miter;stroke:rgb(0%,0%,100%);stroke-opacity:1;stroke-miterlimit:10;" d="M 151.683594 143.527344 L 161.960938 142.554688 "/>
<path style=" stroke:none;fill-rule:nonzero;fill:rgb(100%,100%,100%);fill-opacity:1;" d="M 158.960938 137.054688 L 165.960938 137.054688 L 165.960938 148.054688 L 158.960938 148.054688 Z M 158.960938 137.054688 "/>
<g style="fill:rgb(0%,0%,100%);fill-opacity:1;">
  <use xlink:href="#glyph0-2" x="158.960938" y="145.717773"/>
</g>
<path style="fill:none;stroke-width:1.2;stroke-linecap:butt;stroke-linejoin:miter;stroke:rgb(0%,0%,0%);stroke-opacity:1;stroke-miterlimit:10;" d="M 170.558594 123.78125 L 180.835938 122.808594 "/>
<path style="fill:none;stroke-width:1.2;stroke-linecap:butt;stroke-linejoin:miter;stroke:rgb(0%,0%,100%);stroke-opacity:1;stroke-miterlimit:10;" d="M 180.835938 122.808594 L 191.117188 121.839844 "/>
<path style="fill:none;stroke-width:1.2;stroke-linecap:butt;stroke-linejoin:miter;stroke:rgb(0%,0%,0%);stroke-opacity:1;stroke-miterlimit:10;" d="M 172.15625 118.75 L 180.378906 117.972656 "/>
<path style="fill:none;stroke-width:1.2;stroke-linecap:butt;stroke-linejoin:miter;stroke:rgb(0%,0%,100%);stroke-opacity:1;stroke-miterlimit:10;" d="M 180.378906 117.972656 L 188.601562 117.195312 "/>
<path style="fill:none;stroke-width:1.2;stroke-linecap:butt;stroke-linejoin:miter;stroke:rgb(0%,0%,0%);stroke-opacity:1;stroke-miterlimit:10;" d="M 158.597656 106.949219 L 170.558594 123.78125 "/>
<path style="fill:none;stroke-width:1.2;stroke-linecap:butt;stroke-linejoin:miter;stroke:rgb(0%,0%,100%);stroke-opacity:1;stroke-miterlimit:10;" d="M 191.117188 121.839844 L 195.414062 112.449219 "/>
<path style="fill:none;stroke-width:1.2;stroke-linecap:butt;stroke-linejoin:miter;stroke:rgb(0%,0%,0%);stroke-opacity:1;stroke-miterlimit:10;" d="M 195.414062 112.449219 L 199.714844 103.0625 "/>
<path style=" stroke:none;fill-rule:nonzero;fill:rgb(100%,100%,100%);fill-opacity:1;" d="M 188.117188 116.339844 L 195.117188 116.339844 L 195.117188 127.339844 L 188.117188 127.339844 Z M 188.117188 116.339844 "/>
<g style="fill:rgb(0%,0%,100%);fill-opacity:1;">
  <use xlink:href="#glyph0-2" x="188.117188" y="125.00293"/>
</g>
<path style="fill:none;stroke-width:1.2;stroke-linecap:butt;stroke-linejoin:miter;stroke:rgb(0%,0%,0%);stroke-opacity:1;stroke-miterlimit:10;" d="M 199.714844 103.0625 L 193.734375 94.648438 "/>
<path style="fill:none;stroke-width:1.2;stroke-linecap:butt;stroke-linejoin:miter;stroke:rgb(0%,0%,100%);stroke-opacity:1;stroke-miterlimit:10;" d="M 193.734375 94.648438 L 187.753906 86.230469 "/>
<path style="fill:none;stroke-width:1.2;stroke-linecap:butt;stroke-linejoin:miter;stroke:rgb(0%,0%,0%);stroke-opacity:1;stroke-miterlimit:10;" d="M 194.554688 104.195312 L 189.773438 97.460938 "/>
<path style="fill:none;stroke-width:1.2;stroke-linecap:butt;stroke-linejoin:miter;stroke:rgb(0%,0%,100%);stroke-opacity:1;stroke-miterlimit:10;" d="M 189.773438 97.460938 L 184.988281 90.726562 "/>
<path style="fill:none;stroke-width:1.2;stroke-linecap:butt;stroke-linejoin:miter;stroke:rgb(0%,0%,0%);stroke-opacity:1;stroke-miterlimit:10;" d="M 199.714844 103.0625 L 209.992188 102.09375 "/>
<path style="fill:none;stroke-width:1.2;stroke-linecap:butt;stroke-linejoin:miter;stroke:rgb(100%,0%,0%);stroke-opacity:1;stroke-miterlimit:10;" d="M 209.992188 102.09375 L 220.269531 101.121094 "/>
<path style="fill:none;stroke-width:1.2;stroke-linecap:butt;stroke-linejoin:miter;stroke:rgb(0%,0%,100%);stroke-opacity:1;stroke-miterlimit:10;" d="M 187.753906 86.230469 L 177.472656 87.203125 "/>
<path style="fill:none;stroke-width:1.2;stroke-linecap:butt;stroke-linejoin:miter;stroke:rgb(0%,0%,0%);stroke-opacity:1;stroke-miterlimit:10;" d="M 177.472656 87.203125 L 167.195312 88.171875 "/>
<path style=" stroke:none;fill-rule:nonzero;fill:rgb(100%,100%,100%);fill-opacity:1;" d="M 184.753906 80.730469 L 191.753906 80.730469 L 191.753906 91.730469 L 184.753906 91.730469 Z M 184.753906 80.730469 "/>
<g style="fill:rgb(0%,0%,100%);fill-opacity:1;">
  <use xlink:href="#glyph0-2" x="184.753906" y="89.393555"/>
</g>
<path style="fill:none;stroke-width:1.2;stroke-linecap:butt;stroke-linejoin:miter;stroke:rgb(0%,0%,0%);stroke-opacity:1;stroke-miterlimit:10;" d="M 167.195312 88.171875 L 158.597656 106.949219 "/>
<path style="fill:none;stroke-width:1.2;stroke-linecap:butt;stroke-linejoin:miter;stroke:rgb(0%,0%,0%);stroke-opacity:1;stroke-miterlimit:10;" d="M 170.753906 92.074219 L 163.875 107.09375 "/>
<path style="fill:none;stroke-width:1.2;stroke-linecap:butt;stroke-linejoin:miter;stroke:rgb(0%,0%,0%);stroke-opacity:1;stroke-miterlimit:10;" d="M 158.597656 106.949219 L 148.316406 107.917969 "/>
<path style="fill:none;stroke-width:1.2;stroke-linecap:butt;stroke-linejoin:miter;stroke:rgb(0%,0%,100%);stroke-opacity:1;stroke-miterlimit:10;" d="M 148.316406 107.917969 L 138.039062 108.890625 "/>
<path style="fill:none;stroke-width:1.2;stroke-linecap:butt;stroke-linejoin:miter;stroke:rgb(0%,0%,100%);stroke-opacity:1;stroke-miterlimit:10;" d="M 138.039062 108.890625 L 133.742188 118.277344 "/>
<path style="fill:none;stroke-width:1.2;stroke-linecap:butt;stroke-linejoin:miter;stroke:rgb(0%,0%,0%);stroke-opacity:1;stroke-miterlimit:10;" d="M 133.742188 118.277344 L 129.441406 127.664062 "/>
<path style="fill:none;stroke-width:1.2;stroke-linecap:butt;stroke-linejoin:miter;stroke:rgb(0%,0%,100%);stroke-opacity:1;stroke-miterlimit:10;" d="M 141.597656 112.789062 L 138.160156 120.300781 "/>
<path style="fill:none;stroke-width:1.2;stroke-linecap:butt;stroke-linejoin:miter;stroke:rgb(0%,0%,0%);stroke-opacity:1;stroke-miterlimit:10;" d="M 138.160156 120.300781 L 134.71875 127.808594 "/>
<path style=" stroke:none;fill-rule:nonzero;fill:rgb(100%,100%,100%);fill-opacity:1;" d="M 135.039062 103.390625 L 142.039062 103.390625 L 142.039062 114.390625 L 135.039062 114.390625 Z M 135.039062 103.390625 "/>
<g style="fill:rgb(0%,0%,100%);fill-opacity:1;">
  <use xlink:href="#glyph0-2" x="135.039062" y="112.053711"/>
</g>
<path style="fill:none;stroke-width:1.2;stroke-linecap:butt;stroke-linejoin:miter;stroke:rgb(0%,0%,0%);stroke-opacity:1;stroke-miterlimit:10;" d="M 129.441406 127.664062 L 141.402344 144.496094 "/>
<path style="fill:none;stroke-width:1.2;stroke-linecap:butt;stroke-linejoin:miter;stroke:rgb(0%,0%,0%);stroke-opacity:1;stroke-miterlimit:10;" d="M 129.441406 127.664062 L 108.882812 129.605469 "/>
<path style="fill:none;stroke-width:1.2;stroke-linecap:butt;stroke-linejoin:miter;stroke:rgb(0%,0%,0%);stroke-opacity:1;stroke-miterlimit:10;" d="M 139.195312 143.484375 L 134.894531 152.871094 "/>
<path style="fill:none;stroke-width:1.2;stroke-linecap:butt;stroke-linejoin:miter;stroke:rgb(100%,0%,0%);stroke-opacity:1;stroke-miterlimit:10;" d="M 134.894531 152.871094 L 130.597656 162.257812 "/>
<path style="fill:none;stroke-width:1.2;stroke-linecap:butt;stroke-linejoin:miter;stroke:rgb(0%,0%,0%);stroke-opacity:1;stroke-miterlimit:10;" d="M 143.613281 145.507812 L 139.3125 154.894531 "/>
<path style="fill:none;stroke-width:1.2;stroke-linecap:butt;stroke-linejoin:miter;stroke:rgb(100%,0%,0%);stroke-opacity:1;stroke-miterlimit:10;" d="M 139.3125 154.894531 L 135.015625 164.28125 "/>
<path style=" stroke:none;fill-rule:nonzero;fill:rgb(100%,100%,100%);fill-opacity:1;" d="M 124.804688 157.769531 L 132.804688 157.769531 L 132.804688 168.769531 L 124.804688 168.769531 Z M 124.804688 157.769531 "/>
<g style="fill:rgb(100%,0%,0%);fill-opacity:1;">
  <use xlink:href="#glyph0-1" x="124.804688" y="166.432617"/>
</g>
<path style="fill:none;stroke-width:1.2;stroke-linecap:butt;stroke-linejoin:miter;stroke:rgb(0%,0%,0%);stroke-opacity:1;stroke-miterlimit:10;" d="M 108.882812 129.605469 L 96.921875 112.773438 "/>
<path style="fill:none;stroke-width:1.2;stroke-linecap:butt;stroke-linejoin:miter;stroke:rgb(0%,0%,0%);stroke-opacity:1;stroke-miterlimit:10;" d="M 103.726562 130.738281 L 94.160156 117.269531 "/>
<path style="fill:none;stroke-width:1.2;stroke-linecap:butt;stroke-linejoin:miter;stroke:rgb(0%,0%,0%);stroke-opacity:1;stroke-miterlimit:10;" d="M 100.285156 148.378906 L 108.882812 129.605469 "/>
<path style="fill:none;stroke-width:1.2;stroke-linecap:butt;stroke-linejoin:miter;stroke:rgb(0%,0%,0%);stroke-opacity:1;stroke-miterlimit:10;" d="M 96.921875 112.773438 L 76.367188 114.714844 "/>
<path style="fill:none;stroke-width:1.2;stroke-linecap:butt;stroke-linejoin:miter;stroke:rgb(0%,0%,0%);stroke-opacity:1;stroke-miterlimit:10;" d="M 76.367188 114.714844 L 67.769531 133.488281 "/>
<path style="fill:none;stroke-width:1.2;stroke-linecap:butt;stroke-linejoin:miter;stroke:rgb(0%,0%,0%);stroke-opacity:1;stroke-miterlimit:10;" d="M 79.921875 118.613281 L 73.046875 133.636719 "/>
<path style="fill:none;stroke-width:1.2;stroke-linecap:butt;stroke-linejoin:miter;stroke:rgb(0%,0%,0%);stroke-opacity:1;stroke-miterlimit:10;" d="M 67.769531 133.488281 L 79.730469 150.320312 "/>
<path style="fill:none;stroke-width:1.2;stroke-linecap:butt;stroke-linejoin:miter;stroke:rgb(0%,0%,0%);stroke-opacity:1;stroke-miterlimit:10;" d="M 67.769531 133.488281 L 57.488281 134.460938 "/>
<path style="fill:none;stroke-width:1.2;stroke-linecap:butt;stroke-linejoin:miter;stroke:rgb(100%,0%,0%);stroke-opacity:1;stroke-miterlimit:10;" d="M 57.488281 134.460938 L 47.210938 135.429688 "/>
<path style="fill:none;stroke-width:1.2;stroke-linecap:butt;stroke-linejoin:miter;stroke:rgb(0%,0%,0%);stroke-opacity:1;stroke-miterlimit:10;" d="M 79.730469 150.320312 L 100.285156 148.378906 "/>
<path style="fill:none;stroke-width:1.2;stroke-linecap:butt;stroke-linejoin:miter;stroke:rgb(0%,0%,0%);stroke-opacity:1;stroke-miterlimit:10;" d="M 81.328125 145.289062 L 97.773438 143.738281 "/>
<path style="fill:none;stroke-width:1.2;stroke-linecap:butt;stroke-linejoin:miter;stroke:rgb(100%,0%,0%);stroke-opacity:1;stroke-miterlimit:10;" d="M 47.210938 135.429688 L 41.230469 127.015625 "/>
<path style="fill:none;stroke-width:1.2;stroke-linecap:butt;stroke-linejoin:miter;stroke:rgb(0%,0%,0%);stroke-opacity:1;stroke-miterlimit:10;" d="M 41.230469 127.015625 L 35.25 118.597656 "/>
<path style=" stroke:none;fill-rule:nonzero;fill:rgb(100%,100%,100%);fill-opacity:1;" d="M 43.210938 129.929688 L 51.210938 129.929688 L 51.210938 140.929688 L 43.210938 140.929688 Z M 43.210938 129.929688 "/>
<g style="fill:rgb(100%,0%,0%);fill-opacity:1;">
  <use xlink:href="#glyph0-1" x="43.210938" y="138.592773"/>
</g>
<path style="fill:none;stroke-width:1.2;stroke-linecap:butt;stroke-linejoin:miter;stroke:rgb(100%,0%,0%);stroke-opacity:1;stroke-miterlimit:10;" d="M 220.269531 101.121094 L 226.25 109.539062 "/>
<path style="fill:none;stroke-width:1.2;stroke-linecap:butt;stroke-linejoin:miter;stroke:rgb(0%,0%,0%);stroke-opacity:1;stroke-miterlimit:10;" d="M 226.25 109.539062 L 232.230469 117.953125 "/>
<path style=" stroke:none;fill-rule:nonzero;fill:rgb(100%,100%,100%);fill-opacity:1;" d="M 216.269531 95.621094 L 224.269531 95.621094 L 224.269531 106.621094 L 216.269531 106.621094 Z M 216.269531 95.621094 "/>
<g style="fill:rgb(100%,0%,0%);fill-opacity:1;">
  <use xlink:href="#glyph0-1" x="216.269531" y="104.28418"/>
</g>
<path style="fill:none;stroke-width:1.2;stroke-linecap:butt;stroke-linejoin:miter;stroke:rgb(0%,0%,0%);stroke-opacity:1;stroke-miterlimit:10;" d="M 232.230469 117.953125 L 223.632812 136.730469 "/>
<path style="fill:none;stroke-width:1.2;stroke-linecap:butt;stroke-linejoin:miter;stroke:rgb(0%,0%,0%);stroke-opacity:1;stroke-miterlimit:10;" d="M 235.789062 121.855469 L 228.910156 136.875 "/>
<path style="fill:none;stroke-width:1.2;stroke-linecap:butt;stroke-linejoin:miter;stroke:rgb(0%,0%,0%);stroke-opacity:1;stroke-miterlimit:10;" d="M 252.789062 116.011719 L 232.230469 117.953125 "/>
<path style="fill:none;stroke-width:1.2;stroke-linecap:butt;stroke-linejoin:miter;stroke:rgb(0%,0%,0%);stroke-opacity:1;stroke-miterlimit:10;" d="M 223.632812 136.730469 L 235.59375 153.5625 "/>
<path style="fill:none;stroke-width:1.2;stroke-linecap:butt;stroke-linejoin:miter;stroke:rgb(0%,0%,0%);stroke-opacity:1;stroke-miterlimit:10;" d="M 235.59375 153.5625 L 256.152344 151.621094 "/>
<path style="fill:none;stroke-width:1.2;stroke-linecap:butt;stroke-linejoin:miter;stroke:rgb(0%,0%,0%);stroke-opacity:1;stroke-miterlimit:10;" d="M 237.195312 148.53125 L 253.640625 146.976562 "/>
<path style="fill:none;stroke-width:1.2;stroke-linecap:butt;stroke-linejoin:miter;stroke:rgb(0%,0%,0%);stroke-opacity:1;stroke-miterlimit:10;" d="M 256.152344 151.621094 L 264.75 132.84375 "/>
<path style="fill:none;stroke-width:1.2;stroke-linecap:butt;stroke-linejoin:miter;stroke:rgb(0%,0%,0%);stroke-opacity:1;stroke-miterlimit:10;" d="M 264.75 132.84375 L 252.789062 116.011719 "/>
<path style="fill:none;stroke-width:1.2;stroke-linecap:butt;stroke-linejoin:miter;stroke:rgb(0%,0%,0%);stroke-opacity:1;stroke-miterlimit:10;" d="M 259.59375 133.976562 L 250.023438 120.511719 "/>
</g>
</svg>

<svg xmlns="http://www.w3.org/2000/svg" xmlns:xlink="http://www.w3.org/1999/xlink" width="300pt" height="300pt" viewBox="0 0 300 300"><defs><symbol overflow="visible"><path d="M.453 1.594v-7.938h4.5v7.938zm.5-.5h3.5v-6.938h-3.5zm0 0"/></symbol><symbol overflow="visible" id="a"><path d="M3.547-5.953c-.65 0-1.164.242-1.547.72-.375.48-.563 1.13-.563 1.952 0 .835.188 1.49.563 1.967.383.48.898.72 1.547.72.644 0 1.156-.24 1.53-.72.376-.476.564-1.132.564-1.968 0-.822-.187-1.474-.562-1.954-.375-.477-.887-.72-1.53-.72zm0-.734c.914 0 1.648.312 2.203.937.55.617.828 1.438.828 2.47 0 1.042-.277 1.87-.828 2.483-.555.617-1.29.922-2.203.922-.93 0-1.668-.305-2.22-.922C.774-1.41.5-2.237.5-3.28c0-1.033.273-1.853.828-2.47.55-.625 1.29-.938 2.22-.938zm0 0"/></symbol><symbol overflow="visible" id="b"><path d="M.89-6.563H2.08l2.906 5.485v-5.484h.86V0H4.656L1.75-5.484V0H.89zm0 0"/></symbol></defs><g><path fill="#fff" d="M0 0h300v300H0z"/><path d="M168.688 213.77l4.296-9.387" stroke-width="1.2" stroke="#000" stroke-miterlimit="10" fill="none"/><path d="M172.984 204.383l4.3-9.387M177.285 194.996l-5.98-8.418" stroke-width="1.2" stroke="#f00" stroke-miterlimit="10" fill="none"/><path d="M171.305 186.578l-5.98-8.418" stroke-width="1.2" stroke="#000" stroke-miterlimit="10" fill="none"/><path d="M173.285 189.496h8v11h-8zm0 0" fill="#fff"/><use xlink:href="#a" x="173.285" y="198.159" fill="#f00"/><path d="M165.324 178.16l8.598-18.773M173.922 159.387l-5.98-8.414" stroke-width="1.2" stroke="#000" stroke-miterlimit="10" fill="none"/><path d="M167.94 150.973l-5.98-8.418M161.96 142.555l4.298-9.387" stroke-width="1.2" stroke="#00f" stroke-miterlimit="10" fill="none"/><path d="M166.258 133.168l4.3-9.387M141.402 144.496l10.282-.97" stroke-width="1.2" stroke="#000" stroke-miterlimit="10" fill="none"/><path d="M151.684 143.527l10.277-.972" stroke-width="1.2" stroke="#00f" stroke-miterlimit="10" fill="none"/><path d="M158.96 137.055h7v11h-7zm0 0" fill="#fff"/><use xlink:href="#b" x="158.961" y="145.718" fill="#00f"/><path d="M170.56 123.78l10.276-.97" stroke-width="1.2" stroke="#000" stroke-miterlimit="10" fill="none"/><path d="M180.836 122.81l10.28-.97" stroke-width="1.2" stroke="#00f" stroke-miterlimit="10" fill="none"/><path d="M172.156 118.75l8.223-.777" stroke-width="1.2" stroke="#000" stroke-miterlimit="10" fill="none"/><path d="M180.38 117.973l8.222-.778" stroke-width="1.2" stroke="#00f" stroke-miterlimit="10" fill="none"/><path d="M158.598 106.95l11.96 16.83" stroke-width="1.2" stroke="#000" stroke-miterlimit="10" fill="none"/><path d="M191.117 121.84l4.297-9.39" stroke-width="1.2" stroke="#00f" stroke-miterlimit="10" fill="none"/><path d="M195.414 112.45l4.3-9.388" stroke-width="1.2" stroke="#000" stroke-miterlimit="10" fill="none"/><path d="M188.117 116.34h7v11h-7zm0 0" fill="#fff"/><use xlink:href="#b" x="188.117" y="125.003" fill="#00f"/><path d="M199.715 103.063l-5.98-8.415" stroke-width="1.2" stroke="#000" stroke-miterlimit="10" fill="none"/><path d="M193.734 94.648l-5.98-8.418" stroke-width="1.2" stroke="#00f" stroke-miterlimit="10" fill="none"/><path d="M194.555 104.195l-4.782-6.734" stroke-width="1.2" stroke="#000" stroke-miterlimit="10" fill="none"/><path d="M189.773 97.46l-4.785-6.733" stroke-width="1.2" stroke="#00f" stroke-miterlimit="10" fill="none"/><path d="M199.715 103.063l10.277-.97" stroke-width="1.2" stroke="#000" stroke-miterlimit="10" fill="none"/><path d="M209.992 102.094l10.278-.973" stroke-width="1.2" stroke="#f00" stroke-miterlimit="10" fill="none"/><path d="M187.754 86.23l-10.28.973" stroke-width="1.2" stroke="#00f" stroke-miterlimit="10" fill="none"/><path d="M177.473 87.203l-10.278.97" stroke-width="1.2" stroke="#000" stroke-miterlimit="10" fill="none"/><path d="M184.754 80.73h7v11h-7zm0 0" fill="#fff"/><use xlink:href="#b" x="184.754" y="89.394" fill="#00f"/><path d="M167.195 88.172l-8.597 18.777M170.754 92.074l-6.88 15.02M158.598 106.95l-10.282.968" stroke-width="1.2" stroke="#000" stroke-miterlimit="10" fill="none"/><path d="M148.316 107.918l-10.277.973M138.04 108.89l-4.298 9.387" stroke-width="1.2" stroke="#00f" stroke-miterlimit="10" fill="none"/><path d="M133.742 118.277l-4.3 9.387" stroke-width="1.2" stroke="#000" stroke-miterlimit="10" fill="none"/><path d="M141.598 112.79l-3.438 7.51" stroke-width="1.2" stroke="#00f" stroke-miterlimit="10" fill="none"/><path d="M138.16 120.3l-3.44 7.51" stroke-width="1.2" stroke="#000" stroke-miterlimit="10" fill="none"/><path d="M135.04 103.39h7v11h-7zm0 0" fill="#fff"/><use xlink:href="#b" x="135.039" y="112.054" fill="#00f"/><path d="M129.44 127.664l11.962 16.832M129.44 127.664l-20.557 1.94M139.195 143.484l-4.3 9.387" stroke-width="1.2" stroke="#000" stroke-miterlimit="10" fill="none"/><path d="M134.895 152.87l-4.297 9.388" stroke-width="1.2" stroke="#f00" stroke-miterlimit="10" fill="none"/><path d="M143.613 145.508l-4.3 9.387" stroke-width="1.2" stroke="#000" stroke-miterlimit="10" fill="none"/><path d="M139.313 154.895l-4.297 9.386" stroke-width="1.2" stroke="#f00" stroke-miterlimit="10" fill="none"/><path d="M124.805 157.77h8v11h-8zm0 0" fill="#fff"/><use xlink:href="#a" x="124.805" y="166.433" fill="#f00"/><path d="M108.883 129.605l-11.96-16.832M103.727 130.738L94.16 117.27M100.285 148.38l8.598-18.775M96.922 112.773l-20.555 1.942M76.367 114.715l-8.597 18.773M79.922 118.613l-6.875 15.024M67.77 133.488l11.96 16.832M67.77 133.488l-10.282.973" stroke-width="1.2" stroke="#000" stroke-miterlimit="10" fill="none"/><path d="M57.488 134.46l-10.277.97" stroke-width="1.2" stroke="#f00" stroke-miterlimit="10" fill="none"/><path d="M79.73 150.32l20.555-1.94M81.328 145.29l16.445-1.552" stroke-width="1.2" stroke="#000" stroke-miterlimit="10" fill="none"/><path d="M47.21 135.43l-5.98-8.414" stroke-width="1.2" stroke="#f00" stroke-miterlimit="10" fill="none"/><path d="M41.23 127.016l-5.98-8.418" stroke-width="1.2" stroke="#000" stroke-miterlimit="10" fill="none"/><path d="M43.21 129.93h8v11h-8zm0 0" fill="#fff"/><use xlink:href="#a" x="43.211" y="138.593" fill="#f00"/><path d="M220.27 101.12l5.98 8.42" stroke-width="1.2" stroke="#f00" stroke-miterlimit="10" fill="none"/><path d="M226.25 109.54l5.98 8.413" stroke-width="1.2" stroke="#000" stroke-miterlimit="10" fill="none"/><path d="M216.27 95.62h8v11h-8zm0 0" fill="#fff"/><use xlink:href="#a" x="216.27" y="104.284" fill="#f00"/><path d="M232.23 117.953l-8.597 18.777M235.79 121.855l-6.88 15.02M252.79 116.012l-20.56 1.94M223.633 136.73l11.96 16.833M235.594 153.563l20.558-1.942M237.195 148.53l16.446-1.553M256.152 151.62l8.598-18.776M264.75 132.844l-11.96-16.832M259.594 133.977l-9.57-13.465" stroke-width="1.2" stroke="#000" stroke-miterlimit="10" fill="none"/></g></svg>
